!!!!SEGMENT: pl-sa--132-a-iii-32--002_haydn-joseph--cassatio-in-b-menuet.krn
!!!cenid: 17xx:566
!!!COM: Haydn, Joseph
!!!COM-rismid: pe55803
!!!CDT: 1732/03/31-1809/05/31
!!!CNT: Austrian
!!!OPR: Cassatio in B
!!!OTL: Menuet
!!!OMV: 002
!!!PDT:
!!!AGN: Secular; Cassation
!!!SMS-siglum: PL-SA
!!!SMS-shelfmark: 132/A III 32
!!!SMS-shelfwork: 001-002 M
!!!SMS-variant:
!!!SMS-altvar:
!!!NIFC-rismid: 1001077259
!!!URL-scan: http://bc.bdsandomierz.pl/dlibra/publication/1489/edition/1457/content
!!!ONB-nifc: UWAGA: części Cassatio: Adagio, Menuet, Presto, Menuet, Presto
**kern	**kern	**kern	**kern
*part4	*part3	*part2	*part1
*staff4	*staff3	*staff2	*staff1
*group1	*group1	*group1	*group1
*I"Baſso	*I"Viola	*I"Violino Secondo	*I"Violino Primo
*I'B	*I'Va	*I'Vn II	*I'Vn I
*clefF4	*clefC3	*clefG2	*clefG2
*k[b-e-]	*k[b-e-]	*k[b-e-]	*k[b-e-]
*E-:	*E-:	*E-:	*E-:
*M3/4	*M3/4	*M3/4	*M3/4
*>[AAA1A1BBB1B1]	*>[AAA1A1BBB1B1]	*>[AAA1A1BBB1B1]	*>[AAA1A1BBB1B1]
=1	=1	=1	=1
*>A	*>A	*>A	*>A
*	*	*	*2\right
!LO:TX:a:t=problem:caudy z prawej strony	!	!	!LO:TX:a:t=problem:wszystkie caudy z prawej strony
4BB-/	4B-/	4B-/ 4d	2.b-\
4BB-/	4b-\	4B-/ 4d	.
4BB-/	4b-\	4B-/ 4d	.
=2	=2	=2	=2
*	*	*^	*
!	!	!LO:TX:a:t=problem:caudy z prawej strony	!	!
4BB-/	4a\	4f/	4c\	2.ee-\
4BB-/	4a\	4f/	4c\	.
4BB-/	4a\	4f/	4c\	.
=3	=3	=3	=3	=3
4BB-/	4b-\	4f/	4d\	8dd\L
.	.	.	.	8ff\
4r	4r	4r	4ryy	8.bb-\
.	.	.	.	16aa\Jk
4r	4r	4r	4ryy	8.gg\L
.	.	.	.	16ff\Jk
*	*	*v	*v	*
=4	=4	=4	=4
.	.	8qqdd/	8qqff/
*	*	*2\right	*
4F\	4f\	2cc\	2ee-\
4FF/	4F/	.	.
4BB-/	4B-/	4b-\	4dd\
=5	=5	=5	=5
!	!LO:TX:a:t=1.	!	!
2.r	2.r	4d/	4f/
.	.	.	16qqg/LL
.	.	.	16qqf/
.	.	.	16qqe-/JJ
.	.	4d/	4f/
.	.	4d/	4f#X/
=6	=6	=6	=6
4r	4r	4e-/	4g/
4E-\	4B-/	4g/	2r
4E-\	4B-/	4g/	.
=7	=7	=7	=7
*	*	*	*^
4r	4r	4r	4a/	4e-\
4F\	4A/	4e-/	4r	2ryy
4F\	4A/	4e-/	4r	.
=8	=8	=8	=8	=8
4r	4r	4r	4b-/	4d\
4B-\	4F/	4d/	4r	2ryy
4B-\	4F/	4d/	4r	.
!	!LO:LB:g=original	!	!	!
=9	=9	=9	=9	=9
!	!LO:TX:a:t=1.	!	!	!
2.r	2.r	4r	4cc/	4f\
.	.	4cc\	4ee-/	4f\
.	.	.	16qqee-/LL	.
.	.	.	16qqdd/	.
.	.	.	16qqcc/JJ	.
.	.	4b-\	4dd/	4f\
!	!	!LO:LB:g=original	!LO:LB:g=original	!
=10	=10	=10	=10	=10
4r	4r	4a/	4cc/	4f\
4F\	4c/	4A/ 4f	4r	2ryy
4F\	4c/	4A/ 4f	4r	.
!LO:LB:g=original	!	!	!	!
=11	=11	=11	=11	=11
4F\	4c/	4f/	4cc/	2f\
4r	4r	4cc\	4ee-/	.
.	.	.	16qqee-/LL	.
.	.	.	16qqdd/	.
.	.	.	16qqcc/JJ	.
4r	4r	4b-\	4dd/	4f\
=12	=12	=12	=12	=12
!	!LO:TX:a:t=1.	!	!	!
2.r	2.r	4a/	4cc/	4f\
.	.	4r	4r	2ryy
.	.	4r	4r	.
*	*	*	*v	*v
=13:|!|:	=13:|!|:	=13:|!|:	=13:|!|:
*>A1yy	*>A1yy	*>A1yy	*>A1yy
4r	4r	4r	2.ff\
4F\	4A/	4f/	.
4F\	4A/	4f/	.
=14	=14	=14	=14
.	.	.	8qqeen/
4r	4r	4r	2.bb-\
4G\	4B-/	4en/	.
4G\	4B-/	4e/	.
=15	=15	=15	=15
4r	4r	4r	2.b-\
4C/	4g\	4en/	.
4C/	4g\	4e/	.
=16	=16	=16	=16
.	.	.	8qqb-/
4r	4r	4r	2.cc\
4F\	4a\	4c/	.
4FF/	4f\	4a/	.
=17	=17	=17	=17
4BB-/	4f\	4b-\	(16dd\KL
.	.	.	8.b-\J)
4r	4r	4r	(16bb-\KL
.	.	.	8.gg\J)
4BBn/	4Bn/	4dd\	(16aa\KL
.	.	.	8.ff\J)
=18	=18	=18	=18
4C/	4c\	(16cc\KL	(16een\KL
.	.	8.een\J)	8.gg\J)
4r	4r	(16ee\KL	(16gg\KL
.	.	8.gg\J)	8.bb-\J)
4r	4r	(16gg\KL	(16bb-\KL
.	.	8.bb-\J)	8.ddd\J)
!	!	!LO:LB:g=original	!
=19	=19	=19	=19
4r	4r	4aa\	4ccc\
4C/	4r	4a/	4ff\
4C/	4c\	4g/	4een\
!	!	!	!LO:LB:g=original
=20	=20	=20	=20
.	.	8qqg/	8qqeen/
4F\	4f\	2f/	2ff\
4C/	4r	.	.
4FF/	4r	4r	4r
!LO:LB:g=original	!LO:LB:g=original	!	!
=21	=21	=21	=21
4r	4f\	4a-X/	2.bn\
4r	4e-\	4g/	.
4FF/	4d-X\	4f/	.
=22	=22	=22	=22
4C/	4c\	4e-/	8.cc\L
.	.	.	16dd\K
4r	4r	4r	8.ee-\
.	.	.	16dd\K
4r	4r	4r	8.cc\
.	.	.	16b-\Jk
=23	=23	=23	=23
.	.	.	8qqb-/
4r	4r	4r	2.a/
4r	4c\	4e-/	.
4AA/	4c\	4e-/	.
=24	=24	=24	=24
4BB-/	4d\	4d/	8b-\L
.	.	.	8dd\
4r	4r	4r	8ff\
.	.	.	8bb-\
4r	4r	8b-\L	8ddd\
.	.	8dd\J	8bb-\J
=25	=25	=25	=25
4F\	4f\	4dd\	4ff\
4FF/	4F/	4cc\	4ee-\
4BB-/	4B-/	4b-\	4dd\
=26	=26	=26	=26
!	!LO:TX:a:t=1.	!	!
2.r	2.r	4d/	4f/
.	.	.	16qqg/LL
.	.	.	16qqf/
.	.	.	16qqe-/JJ
.	.	4d/	4f/
.	.	4d/	4f#X/
=27	=27	=27	=27
4r	4r	4d/	4g/
4E-\	4B-/	4g/	4r
4E-\	4B-/	4g/	4r
=28	=28	=28	=28
*	*	*	*^
4r	4r	4r	4a/	4e-\
4F\	4A/	4e-/	4r	2ryy
4F\	4A/	4e-/	4r	.
!	!	!LO:LB:g=original	!	!
=29	=29	=29	=29	=29
4r	4r	4r	4ee-/	4f/
4F\	4A/	4c/	8r	2ryy
.	.	.	8ee-\L	.
4F\	4c/	4e-/	8cc\	.
.	.	.	8a\J	.
!	!	!	!LO:LB:g=original	!
=30	=30	=30	=30	=30
4BB-/	4B-/	4d/	4b-/	4d\
4F\	4f\	4b-/	4dd/	2f\
4FF/	4F/	4a/	4cc/	.
=31	=31	=31	=31	=31
4BB-	4B-/	4b-\	4b-/	4d/
4r	4d\	4f/	4r	2ryy
4r	4f\	4a-X/	4r	.
!LO:LB:g=original	!	!	!	!
=32	=32	=32	=32	=32
4r	4e-\	4g/	4r	4ryy
4BB-/	4r	4r	4ee-/	4g\
4BB-/	4r	4r	4a/	4e-\
=33	=33	=33	=33	=33
4BB-/	4r	4r	4b-/	4d/
4r	4d\	4f/	4r	2ryy
4r	4f\	4a-X/	4r	.
=34	=34	=34	=34	=34
4r	4e-\	4g/	4r	4ryy
4BB-/	4r	4r	4ee-/	4g\
4BB-/	4r	4r	4a/	4e-\
=35	=35	=35	=35	=35
!	!LO:TX:a:t=problem:takt nieczytelny	!	!	!
4BB-/	2ryy	4B-/ 4d	4b-/	4d/
4r	.	4r	4r	2ryy
4r	4r	4r	4r	.
*	*	*	*v	*v
!LO:LB:g=original	!LO:LB:g=original	!LO:LB:g=original	!
=36:|!|:	=36:|!|:	=36:|!|:	=36:|!|:
*>B	*>B	*>B	*>B
*k[b-e-a-]	*k[b-e-a-]	*k[b-e-a-]	*k[b-e-a-]
*M3/4	*M6/8	*M6/8	*M6/8
*	*Xtuplet	*	*
!LO:TX:b:t=problem:metrum 3/4	!	!	!
!LO:TX:a:t=1	!LO:TX:a:t=problem:triole zaznaczone klamrą łukową	!	!
!LO:TX:a:t=Trio	!LO:TX:a:t=Trio	!LO:TX:a:t=Trio	!LO:TX:a:t=Trio
2.r	4r	4r	[2.b-\
!	!	!LO:TUP:b	!
.	(12e-\L	(12g/L	.
.	12d\	12f/	.
.	12e-\J)	12g/J)	.
*	*	*Xtuplet	*
.	(12f\L	(12a-/L	.
.	12e-\	12g/	.
.	12f\J)	12a-/J)	.
=37	=37	=37	=37
4r	4d\	4f/	4b-\]
4BB-/	4r	4r	4b-\
4AA-/	4r	4r	4b-\
=38	=38	=38	=38
4GG/	4r	4r	[2.b-\
4r	(12e-\L	(12g/L	.
.	12d\	12f/	.
.	12e-\J)	12g/J)	.
4r	(12f\L	(12a-/L	.
.	12e-\	12g/	.
.	12f\J)	12a-/J)	.
=39	=39	=39	=39
4r	4d/	4f/	4b-\]
4B-\	4B-/	(12d/L	4b-\
.	.	12c/	.
.	.	12d/J)	.
4A-\	4A-/	(12f/L	4b-\
.	.	12e-/	.
.	.	12f/J)	.
!	!	!	!LO:LB:g=original
=40	=40	=40	=40
4G\	4G/	(12e-/L	2.b-\
.	.	12d/	.
.	.	12e-/J)	.
4F\	4F/	(12f/L	.
.	.	12e-/	.
.	.	12f/J)	.
4E-\	4E-/	(12g/L	.
.	.	12f/	.
.	.	12g/J)	.
!	!	!LO:LB:g=original	!
=41	=41	=41	=41
4D\	4D/	(12f/L	4b-\
.	.	12en/	.
.	.	12f/J)	.
4r	4r	(12b-/L	4b-\
.	.	12an/	.
.	.	12g/J)	.
4BB-/	4r	(12f/L	4b-\
.	.	12e/	.
.	.	12d/J)	.
=42	=42	=42	=42
*	*	*	*Xtuplet
!	!	!	!LO:TX:a:t=problem:triole oznaczone klamrą łukową
4C/	4c\	4e-/	(12an\L
.	.	.	12b-\)
.	.	.	12a\J
4r	4r	4r	(12cc\L
.	.	.	12dd\)
.	.	.	12cc\J
4C/	4c\	4e-/	12ee-\L
.	.	.	(12cc\
.	.	.	12a\J)
!	!LO:LB:g=original	!	!
=43	=43	=43	=43
4BB-/	4B-/	4d/	(12b-\L
.	.	.	12cc\)
.	.	.	12b-\J
4F\	4f\	4f/	12f/L
.	.	.	(12g/
.	.	.	12f/J)
4E-\	4d\	4d/	12d/L
.	.	.	(12e-/
.	.	.	12d/J)
=44	=44	=44	=44
4E-\	4e-\	12e-/L	12g/L
.	.	12d/	12f/
.	.	12c/J	12e-/J
4F\	4f\	4B-/	4d/
4FF/	4F/	4A-/	4c/
!LO:LB:g=original	!	!	!
=45	=45	=45	=45
.	.	.	8qqc/
4BB-/	4B-/	2B-/	2B-/
4r	4r	.	.
4r	4r	4r	4r
=46:|!|:	=46:|!|:	=46:|!|:	=46:|!|:
*>B1yy	*>B1yy	*>B1yy	*>B1yy
2.r	4r	4r	[2.b-\
.	(12B-/L	(12g/L	.
.	12c/	12a-/	.
.	12B-/J)	12g/J)	.
.	(12A-/L	(12f/L	.
.	12B-/	12g/	.
.	12A-/J)	12f/J)	.
=47	=47	=47	=47
4C/	4G/	4en/	4b-\]
4FF/	(12A-/L	(12f/L	2a-/
.	12B-/	12g/	.
.	12A-/J)	12f/J)	.
4r	(12G/L	(12e-X/L	.
.	12A-/	12f/	.
.	12G/J)	12e-/J)	.
!	!	!LO:LB:g=original	!
=48	=48	=48	=48
4BB-/	4F/	4d/	4a-/
4E-\	(12G/L	(12e-/L	2g/
.	12A-/	12f/	.
.	12G/J)	12e-/J)	.
4r	(12B-/L	(12d/L	.
.	12c/	12e-/	.
.	12B-/J)	12d/J)	.
!	!	!	!LO:LB:g=original
=49	=49	=49	=49
4A-\	4A-/	4c/	12f/L
.	.	.	(12en/
.	.	.	12f/J)
4r	4r	4r	12a-/L
.	.	.	(12g/
.	.	.	12a-/J)
4r	4r	4r	12cc\L
.	.	.	(12bn\
.	.	.	12cc\J)
=50	=50	=50	=50
2.AA-/	2.A-/	2cc\	12ff\L
.	.	.	(12een\
.	.	.	12ff\J)
.	.	.	12aa-\L
.	.	.	(12gg\
.	.	.	12ff\J)
.	.	4a-/	12ccc\L
.	.	.	(12aa-\
.	.	.	12ff\J)
=51	=51	=51	=51
.	.	8qqg/	8qqee-/
4BB-/	4B-/	2f/	2.dd\
4B-\	4b-\	.	.
4BB-/	4B-/	4r	.
!	!LO:LB:g=original	!	!
=52	=52	=52	=52
!LO:TX:a:t=1	!	!	!
2.r	4r	4r	2.b-\
.	(12e-\L	(12g/L	.
.	12d\	12f/	.
.	12e-\J)	12g/J)	.
.	(12f\L	(12a-/L	.
.	12e-\	12g/	.
.	12f\J)	12a-/J)	.
=53	=53	=53	=53
4r	4d\	4f/	4b-\
4B-\	4r	4r	12ff\L
.	.	.	(12ee-\
.	.	.	12dd\J)
4A-\	4r	4r	12aa-\L
.	.	.	(12ff\
.	.	.	12dd\J)
=54	=54	=54	=54
4G\	4r	4r	4ee-\
4r	(12E-/L	(12g/L	4b-\
.	12D/	12f/	.
.	12E-/J)	12g/J)	.
4r	(12F/L	(12a-/L	4b-\
.	12E-/	12g/	.
.	12F/J)	12a-/J)	.
=55	=55	=55	=55
4r	4D/	4f/	4b-\
4BB-/	4r	4r	12ff\L
.	.	.	(12ee-\
.	.	.	12dd\J)
4AA-/	4r	4r	12aa-\L
.	.	.	(12ff\
.	.	.	12dd\J)
!LO:LB:g=original	!	!LO:LB:g=original	!
=56	=56	=56	=56
*	*	*	*tuplet
4GG/	4r	2.e-/	12ee-\L
.	.	.	12ff\
.	.	.	12ee-\J
*	*	*	*Xtuplet
4r	4r	.	12gg\L
.	.	.	(12ff\
.	.	.	12ee-\J)
4G\	4g\	.	12dd\L
.	.	.	(12cc\
.	.	.	12b-\J)
!	!	!	!LO:LB:g=original
=57	=57	=57	=57
4F\	4c\	4e-/	12a-/L
.	.	.	(12g/
.	.	.	12a-/J)
4D\	4d\	4d/	12cc\L
.	.	.	(12b-\
.	.	.	12a-\J)
4E-\	4B-\	(12e-/L	12g/L
.	.	12f/	(12a-/
.	.	12g/J)	12b-/J)
=58	=58	=58	=58
4A-\	4A-/	(12a-/L	12cc\L
.	.	12g/	(12b-\
.	.	12f/J)	12a-\J)
4B-\	4B-/	4e-/	4g/
4BB-/	4B-/	4d/	4f/
=59	=59	=59	=59
.	.	8qqd/	8qqf/
4E-\	4e-\	2e-/	2e-/
4GG/	4B-\	.	.
!LO:TX:b:t=Menuet Da Capo	!LO:TX:b:t=menuet Da Capo	!LO:TX:b:t=Menuet Da Capo	!LO:TX:a:t=Menuet Da Capo.
4E-\	4E-/	4r	4r
==	==	==	==
*-	*-	*-	*-
!!!system-decoration: [(g1)]
!!!ENC: Anna Matuszewska
!!!END: 2020-08-12
